X: 7183
T: Cicerenella For Bagpipe
R: jig
M: 6/8
K: Gmajor
|:B2c|"G,"d2d e2d|"D7"c2B A2B|c2c d2c|"G,"B2A G2B|
"E7"d2d e2d|"A,m"c2B A2B|"D7"cdc B2A|"G,"G2z:|
K:Gm
|:GBd|g2g d2d|g2g d2d|e2e efe|d3 ded|
c2c cdc|B2B BcB|A2A ABA|1 G3:|2 G3||
K: Am
|:A2B|"Am"cBc "Dm"dcB|"Am"cBc "Dm"dcB|"Am"cBA "E7"^GAB|"Am"A2z A2B|
"Am"cBc "Dm"dcd|"Am"ede "Dm"fed|"Am"cBA "E7"^GAB|"Am"A2z:|
K:C
|:"G7"GAB|"C"cBc ece|g2g gag|"G7"g2f fgf|"C"f2e "G7"GAB|
"C"cBc ece|g2g g^fg|"G7"bag fed|"C"c2z:|

